src/Mohassel/Assets/printer.svg

<?xml version="1.0" encoding="UTF-8" standalone="no"?>
<svg
   xmlns:dc="http://purl.org/dc/elements/1.1/"
   xmlns:cc="http://creativecommons.org/ns#"
   xmlns:rdf="http://www.w3.org/1999/02/22-rdf-syntax-ns#"
   xmlns:svg="http://www.w3.org/2000/svg"
   xmlns="http://www.w3.org/2000/svg"
   xmlns:sodipodi="http://sodipodi.sourceforge.net/DTD/sodipodi-0.dtd"
   xmlns:inkscape="http://www.inkscape.org/namespaces/inkscape"
   version="1.1"
   width="1024"
   height="1024"
   viewBox="0 0 1024 1024"
   id="svg17"
   sodipodi:docname="printer.svg"
   inkscape:version="1.0.1 (c497b03c, 2020-09-10)">
  <metadata
     id="metadata23">
    <rdf:RDF>
      <cc:Work
         rdf:about="">
        <dc:format>image/svg+xml</dc:format>
        <dc:type
           rdf:resource="http://purl.org/dc/dcmitype/StillImage" />
      </cc:Work>
    </rdf:RDF>
  </metadata>
  <defs
     id="defs21" />
  <sodipodi:namedview
     pagecolor="#ffffff"
     bordercolor="#666666"
     borderopacity="1"
     objecttolerance="10"
     gridtolerance="10"
     guidetolerance="10"
     inkscape:pageopacity="0"
     inkscape:pageshadow="2"
     inkscape:window-width="1483"
     inkscape:window-height="643"
     id="namedview19"
     showgrid="false"
     inkscape:zoom="0.12688562"
     inkscape:cx="370.13995"
     inkscape:cy="512"
     inkscape:window-x="0"
     inkscape:window-y="25"
     inkscape:window-maximized="0"
     inkscape:current-layer="svg17" />
  <title
     id="title10" />
  <g
     id="icomoon-ignore" />
  <path
     d="M256 64h512v128h-512v-128z"
     id="path13"
     style="fill:#7dc356;fill-opacity:1" />
  <path
     d="M960 256h-896c-35.2 0-64 28.8-64 64v320c0 35.2 28.8 64 64 64h192v256h512v-256h192c35.2 0 64-28.8 64-64v-320c0-35.2-28.8-64-64-64zM128 448c-35.328 0-64-28.672-64-64s28.672-64 64-64 64 28.672 64 64-28.672 64-64 64zM704 896h-384v-320h384v320z"
     id="path15"
     style="fill:#7dc356;fill-opacity:1" />
</svg>

<svg xmlns="http://www.w3.org/2000/svg" width="1024" height="1024" fill="#7dc356"><path d="M256 64h512v128H256V64zm704 192H64c-35.2 0-64 28.8-64 64v320c0 35.2 28.8 64 64 64h192v256h512V704h192c35.2 0 64-28.8 64-64V320c0-35.2-28.8-64-64-64zM128 448c-35.328 0-64-28.672-64-64s28.672-64 64-64 64 28.672 64 64-28.672 64-64 64zm576 448H320V576h384v320z"/></svg>
